X:80
T:Quick Step. JBs.080
S:Jas.Blackshaw MS, 1837, N.Shropshire
A:North Shropshire
Z:T. Weatherall 2006
M:2/4
L:1/16
Q:1/4=100
R:March
K:F
f2f2 gege|f2f2 gege|f2f2 g2g2|a2a2 bgeg|!
f2f2 gege|f2f2 gege|f2f2 g2g2|gbge f4:|!
|:g2câ€™2câ€™4|dâ€™2b2 b4|câ€™acâ€™a f2f2|gege c4|!
a2câ€™2 câ€™4|dâ€™2b2 b4|â€*â€câ€™acâ€™a f2f2|â€*â€gbge f4:|

